svg/u1f358.svg

<svg viewBox="0 0 128 128" xmlns="http://www.w3.org/2000/svg">
  <path d="M62.36,120.37c0,0,36.46-3.78,43.34-9.8c3.44-3.01,7.35-9.44,9.63-13.24 c2.28-3.81,3.78-6.54,5.16-10.32c2.75-7.57,4.13-30.27,0-41.62s-9.46-21.5-16.86-27.52C96.36,11.93,83.51,3.92,63.9,3.92 c-8.75,0-15.38,1.84-20.98,3.78c-8.38,2.91-13.14,6.09-16.34,8.77C22.74,19.7,15.14,26.37,9.9,38.32 c-2.05,4.66-4.31,11.19-4.99,17.03C2.5,76.16,6.28,93.71,18.32,106.09s16.51,10.66,16.51,10.66L62.36,120.37z" fill="#F47A00"/>
  <path d="M31.28,104.83c0,0-1.89,0-4.13-1.03S16.66,91.24,15.11,86.77c-1.55-4.47-5.08-20.21-3.44-27.69 c0.94-4.27,2.06-7.57,2.06-7.57s4.16-11.22,4.68-14.83c0.52-3.61,5.13-7.7,7.36-10.28s3.78-5.16,7.91-7.57s8.43-2.41,11.18-3.78 c2.75-1.38,6.83-3.87,10.84-4.99c7.61-2.13,12.21,0.17,16.34,0c4.13-0.17,8.04,1.13,13.11,3.85c3.61,1.94,6.4,4.17,9.66,6.75 s7.79,4.13,11.11,8.31c3.18,4,3.78,8.6,5.68,13.76c1.89,5.16,3.97,7.88,4.32,11.32c0.34,3.44,0.04,6.14,0.21,10.09 s1.05,6.91,0.85,9.21c-0.42,4.96-2.32,6.05-2.83,9.49c-0.52,3.44-2.72,7.46-3.83,9.65c-3,5.93-8.51,9.14-10.83,10.68 C95.46,105.88,31.28,104.83,31.28,104.83z" fill="#FFA726"/>
  <path d="M17.12,61.96c-3.55-0.47-6.79,3.16-6.56,7.43c0.24,4.27,3.08,5.69,6.16,4.9 c3.9-1,5.29-4.58,5.21-7.19S20.66,62.43,17.12,61.96z" fill="#F27B00"/>
  <path d="M39.67,35.35c-3.11-2.52-1.97-5.95-0.29-8.13s6.31-3.19,8.24,0.17c1.93,3.36,0.49,5.7-1.04,7.3 C45.08,36.27,41.74,37.03,39.67,35.35z" fill="#F27B00"/>
  <path d="M52.83,26.23c1.34,2.69,5.13,3.16,7.66,1.74c2.53-1.42,3.4-4.19,1.9-6.71 c-1.48-2.49-5.29-3.63-8.06-1.42C51.57,22.04,52.04,24.65,52.83,26.23z" fill="#F27B00"/>
  <path d="M68.34,36.06c1.23,2.84,4.73,3.3,7.44,1.95c2.71-1.35,4.62-4.96,3-7.75 c-1.63-2.78-5.28-3.03-7.71-1.35S66.97,32.9,68.34,36.06z" fill="#F27B00"/>
  <path d="M83.18,28.75c2.27,1.82,6.23,0.77,7.68-1.91c1.11-2.05,1.72-4.41-0.57-6.7s-6.03-1.27-7.75,1.15 C81.19,23.21,80.81,26.86,83.18,28.75z" fill="#F27B00"/>
  <path d="M27.82,42.19c-1.7,0.12-1.45,3.61-1.53,8.59c-0.08,4.76-1.02,14.75-0.49,25.47 c0.22,4.51-0.25,17.23,0.18,23.62c0.44,6.4,0.18,13.55,0.18,13.55s10.25,10.62,37.8,11.02c29.02,0.42,40.86-13.46,40.86-13.46 s-0.32-17.51-0.29-24.4c0.04-10.19-0.59-29.57-0.59-32.7c0-3.13,0.26-10.51-0.87-11.51c-1.13-1-9.16-0.55-16.48-0.37 c-6.55,0.16-29.4,0.22-37.8,0.22S31.33,41.94,27.82,42.19z" fill="#3C3C3C"/>
  <path d="M31.76,48.99c-1.07,0.65-1.25,9.27-1,17.3s0.25,15.67,2.88,16.17c2.63,0.5,5.26-5.39,8.02-7.65 c2.76-2.26,6.02-4.01,8.15-7.14c2.13-3.13,4.51-8.15,5.64-10.65c1.13-2.51,4.64-5.89,4.26-7.9c-0.38-2.01-12.66-1.25-16.42-1.25 C39.53,47.87,34.02,47.62,31.76,48.99z" fill="#858585"/>
  <path d="M66.73,47.74c-1.59,1.13-3.26,5.51-4.39,7.52c-1.13,2.01-4.26,6.39-1.88,7.9 c2.38,1.5,7.14-2.01,8.65-3.01c1.5-1,3.51-1.5,4.26-2.13c0.75-0.63,4.51-6.14,5.39-7.02c0.88-0.88,2.76-1.88,2.76-2.88 s-4.64-1-8.77-0.88S67.61,47.11,66.73,47.74z" fill="#858585"/>
  <path d="M52.32,73.18c-1.16,1.58-3.13,5.01-0.88,6.64c2.26,1.63,4.76-0.13,6.52-2.01s2.63-4.39,0.5-6.64 S53.69,71.3,52.32,73.18z" fill="#858585"/>
  <path d="M44.8,82.21c-1.25-0.1-3.89,3.89-6.27,4.89c-2.38,1-6.02,0.38-6.64,2.63 c-0.63,2.26-2.01,11.78,0,12.91s7.52-0.75,8.77-1.5s1.13-2.51,3.63-4.14c2.51-1.63,2.88-5.89,3.01-8.9S46.42,82.33,44.8,82.21z" fill="#858585"/>
</svg>

<svg viewBox="0 0 128 128" xmlns="http://www.w3.org/2000/svg">
  <defs/>
  <path d="M62.36,120.37 C62.36,120.37 98.82,116.59 105.7,110.57 C109.14,107.56 113.05,101.13 115.33,97.33 C117.61,93.52 119.11,90.79 120.49,87.01 C123.24,79.44 124.62,56.74 120.49,45.39 C116.36,34.04 111.03,23.89 103.63,17.87 C96.36,11.93 83.51,3.92 63.9,3.92 C55.15,3.92 48.52,5.76 42.92,7.7 C34.54,10.61 29.78,13.79 26.58,16.47 C22.74,19.7 15.14,26.37 9.9,38.32 C7.85,42.98 5.59,49.51 4.91,55.35 C2.5,76.16 6.28,93.71 18.32,106.09 C30.36,118.47 34.83,116.75 34.83,116.75 L62.36,120.37 Z" fill="#F47A00"/>
  <path d="M31.28,104.83 C31.28,104.83 29.39,104.83 27.15,103.8 C24.91,102.77 16.66,91.24 15.11,86.77 C13.56,82.3 10.03,66.56 11.67,59.08 C12.61,54.81 13.73,51.51 13.73,51.51 C13.73,51.51 17.89,40.29 18.41,36.68 C18.93,33.07 23.54,28.98 25.77,26.4 C28,23.82 29.55,21.24 33.68,18.83 C37.81,16.42 42.11,16.42 44.86,15.05 C47.61,13.67 51.69,11.18 55.7,10.06 C63.31,7.93 67.91,10.23 72.04,10.06 C76.17,9.89 80.08,11.19 85.15,13.91 C88.76,15.85 91.55,18.08 94.81,20.66 C98.07,23.24 102.6,24.79 105.92,28.97 C109.1,32.97 109.7,37.57 111.6,42.73 C113.49,47.89 115.57,50.61 115.92,54.05 C116.26,57.49 115.96,60.19 116.13,64.14 C116.3,68.09 117.18,71.05 116.98,73.35 C116.56,78.31 114.66,79.4 114.15,82.84 C113.63,86.28 111.43,90.3 110.32,92.49 C107.32,98.42 101.81,101.63 99.49,103.17 C95.46,105.88 31.28,104.83 31.28,104.83 Z" fill="#FFA726"/>
  <path d="M17.12,61.96 C13.57,61.49 10.33,65.12 10.56,69.39 C10.8,73.66 13.64,75.08 16.72,74.29 C20.62,73.29 22.01,69.71 21.93,67.1 C21.85,64.49 20.66,62.43 17.12,61.96 Z" fill="#F27B00"/>
  <path d="M39.67,35.35 C36.56,32.83 37.7,29.4 39.38,27.22 C41.06,25.04 45.69,24.03 47.62,27.39 C49.55,30.75 48.11,33.09 46.58,34.69 C45.08,36.27 41.74,37.03 39.67,35.35 Z" fill="#F27B00"/>
  <path d="M52.83,26.23 C54.17,28.92 57.96,29.39 60.49,27.97 C63.02,26.55 63.89,23.78 62.39,21.26 C60.91,18.77 57.1,17.63 54.33,19.84 C51.57,22.04 52.04,24.65 52.83,26.23 Z" fill="#F27B00"/>
  <path d="M68.34,36.06 C69.57,38.9 73.07,39.36 75.78,38.01 C78.49,36.66 80.4,33.05 78.78,30.26 C77.15,27.48 73.5,27.23 71.07,28.91 C68.64,30.59 66.97,32.9 68.34,36.06 Z" fill="#F27B00"/>
  <path d="M83.18,28.75 C85.45,30.57 89.41,29.52 90.86,26.84 C91.97,24.79 92.58,22.43 90.29,20.14 C88,17.85 84.26,18.87 82.54,21.29 C81.19,23.21 80.81,26.86 83.18,28.75 Z" fill="#F27B00"/>
  <path d="M27.82,42.19 C26.12,42.31 26.37,45.8 26.29,50.78 C26.21,55.54 25.27,65.53 25.8,76.25 C26.02,80.76 25.55,93.48 25.98,99.87 C26.42,106.27 26.16,113.42 26.16,113.42 C26.16,113.42 36.41,124.04 63.96,124.44 C92.98,124.86 104.82,110.98 104.82,110.98 C104.82,110.98 104.5,93.47 104.53,86.58 C104.57,76.39 103.94,57.01 103.94,53.88 C103.94,50.75 104.2,43.37 103.07,42.37 C101.94,41.37 93.91,41.82 86.59,42 C80.04,42.16 57.19,42.22 48.79,42.22 C40.39,42.22 31.33,41.94 27.82,42.19 Z" fill="#3C3C3C"/>
  <path d="M31.76,48.99 C30.69,49.64 30.51,58.26 30.76,66.29 C31.01,74.32 31.01,81.96 33.64,82.46 C36.27,82.96 38.9,77.07 41.66,74.81 C44.42,72.55 47.68,70.8 49.81,67.67 C51.94,64.54 54.32,59.52 55.45,57.02 C56.58,54.51 60.09,51.13 59.71,49.12 C59.33,47.11 47.05,47.87 43.29,47.87 C39.53,47.87 34.02,47.62 31.76,48.99 Z" fill="#858585"/>
  <path d="M66.73,47.74 C65.14,48.87 63.47,53.25 62.34,55.26 C61.21,57.27 58.08,61.65 60.46,63.16 C62.84,64.66 67.6,61.15 69.11,60.15 C70.61,59.15 72.62,58.65 73.37,58.02 C74.12,57.39 77.88,51.88 78.76,51 C79.64,50.12 81.52,49.12 81.52,48.12 C81.52,47.12 76.88,47.12 72.75,47.24 C68.62,47.36 67.61,47.11 66.73,47.74 Z" fill="#858585"/>
  <path d="M52.32,73.18 C51.16,74.76 49.19,78.19 51.44,79.82 C53.7,81.45 56.2,79.69 57.96,77.81 C59.72,75.93 60.59,73.42 58.46,71.17 C56.33,68.92 53.69,71.3 52.32,73.18 Z" fill="#858585"/>
  <path d="M44.8,82.21 C43.55,82.11 40.91,86.1 38.53,87.1 C36.15,88.1 32.51,87.48 31.89,89.73 C31.26,91.99 29.88,101.51 31.89,102.64 C33.9,103.77 39.41,101.89 40.66,101.14 C41.91,100.39 41.79,98.63 44.29,97 C46.8,95.37 47.17,91.11 47.3,88.1 C47.43,85.09 46.42,82.33 44.8,82.21 Z" fill="#858585"/>
</svg>
